public/assets/starship.svg

<?xml version="1.0" encoding="UTF-8" standalone="no"?>
<svg
   id="svg"
   width="208.91406"
   height="401.54465"
   viewBox="0 0 208.91406 401.54465"
   version="1.1"
   sodipodi:docname="starship.svg"
   inkscape:version="1.4 (e7c3feb1, 2024-10-09)"
   xmlns:inkscape="http://www.inkscape.org/namespaces/inkscape"
   xmlns:sodipodi="http://sodipodi.sourceforge.net/DTD/sodipodi-0.dtd"
   xmlns="http://www.w3.org/2000/svg"
   xmlns:svg="http://www.w3.org/2000/svg">
  <defs
     id="defs1" />
  <sodipodi:namedview
     id="namedview1"
     pagecolor="#ffffff"
     bordercolor="#000000"
     borderopacity="0.25"
     inkscape:showpageshadow="2"
     inkscape:pageopacity="0.0"
     inkscape:pagecheckerboard="0"
     inkscape:deskcolor="#d1d1d1"
     inkscape:zoom="1"
     inkscape:cx="98.5"
     inkscape:cy="195.5"
     inkscape:window-width="1232"
     inkscape:window-height="770"
     inkscape:window-x="49"
     inkscape:window-y="34"
     inkscape:window-maximized="1"
     inkscape:current-layer="svg" />
  <g
     id="svgg"
     transform="translate(-93.8105,2.672)">
    <path
       id="path0"
       d="M 128.333,28.333 C 86.612,70.054 86.96,130.294 129.167,172.5 c 32.919,32.92 36.989,59.505 12.5,81.667 C 125.25,269.024 125,268.722 125,234.014 c 0,-29.073 -2.551,-34.745 -14.583,-32.428 -22.142,4.264 -22.142,192.564 0,196.828 12.041,2.319 14.631,-3.472 14.86,-33.22 0.175,-22.693 6.067,-42.967 15.919,-54.777 18.086,-21.679 25.471,-23.654 25.471,-6.812 0,14.783 27.668,24.316 50,17.228 9.166,-2.909 16.666,-10.662 16.666,-17.228 0,-42.135 31.887,11.165 35.193,58.826 1.66,23.924 6.402,34.04 16.891,36.027 13.24,2.51 14.583,-6.559 14.583,-98.458 0,-91.899 -1.343,-100.968 -14.583,-98.459 -9.68,1.833 -15.475,12.029 -17.236,30.325 -2.198,22.848 -4.694,25.87 -14.583,17.662 -20.104,-16.685 -13.473,-46.32 17.235,-77.028 42.207,-42.206 42.555,-102.446 0.834,-144.167 -41.34,-41.34 -101.994,-41.34 -143.334,0 m 80,213.334 c 0,22.916 -3.75,41.666 -8.333,41.666 -4.583,0 -8.333,-18.75 -8.333,-41.666 0,-22.917 3.75,-41.667 8.333,-41.667 4.583,0 8.333,18.75 8.333,41.667"
       stroke="none"
       fill="#000000"
       fill-rule="evenodd" />
  </g>
</svg>

<svg id="svg" xmlns="http://www.w3.org/2000/svg" xmlns:xlink="http://www.w3.org/1999/xlink" width="400" height="400" viewBox="0, 0, 400,400"><g id="svgg"><path id="path0" d="M128.333 28.333 C 86.612 70.054,86.960 130.294,129.167 172.500 C 162.086 205.420,166.156 232.005,141.667 254.167 C 125.250 269.024,125.000 268.722,125.000 234.014 C 125.000 204.941,122.449 199.269,110.417 201.586 C 88.275 205.850,88.275 394.150,110.417 398.414 C 122.458 400.733,125.048 394.942,125.277 365.194 C 125.452 342.501,131.344 322.227,141.196 310.417 C 159.282 288.738,166.667 286.763,166.667 303.605 C 166.667 318.388,194.335 327.921,216.667 320.833 C 225.833 317.924,233.333 310.171,233.333 303.605 C 233.333 261.470,265.220 314.770,268.526 362.431 C 270.186 386.355,274.928 396.471,285.417 398.458 C 298.657 400.968,300.000 391.899,300.000 300.000 C 300.000 208.101,298.657 199.032,285.417 201.541 C 275.737 203.374,269.942 213.570,268.181 231.866 C 265.983 254.714,263.487 257.736,253.598 249.528 C 233.494 232.843,240.125 203.208,270.833 172.500 C 313.040 130.294,313.388 70.054,271.667 28.333 C 230.327 -13.007,169.673 -13.007,128.333 28.333 M208.333 241.667 C 208.333 264.583,204.583 283.333,200.000 283.333 C 195.417 283.333,191.667 264.583,191.667 241.667 C 191.667 218.750,195.417 200.000,200.000 200.000 C 204.583 200.000,208.333 218.750,208.333 241.667 " stroke="none" fill="#000000" fill-rule="evenodd"></path></g></svg>
